.icons/Zafiro-icons-Mac/panel/16/weather-clouds-night.svg

<svg xmlns="http://www.w3.org/2000/svg" width="16" height="16" version="1.1">
 <defs>
  <style id="current-color-scheme" type="text/css">
   .ColorScheme-Text { color:#dfdfdf; } .ColorScheme-Highlight { color:#4285f4; }
  </style>
 </defs>
 <path style="fill:currentColor" class="ColorScheme-Text" d="M 7.736,0.9962 C 4.9732,1.0977 2.4273,2.8008 1.4235,5.5587 0.89934,6.999 0.87974,8.501 1.2653,9.875 1.669,8.557 2.7497,7.542 4.1032,7.192 4.2732,6.9013 4.4747,6.6319 4.693,6.3791 4.7035,5.6688 4.8234,4.9505 5.0797,4.2462 5.5939,2.8336 6.5542,1.7379 7.736,0.9962 Z M 8.086,5.7502 C 6.5323,5.7502 5.2096,6.7011 4.6403,8.047 3.1944,8.262 2.0856,9.494 2.0856,11 2.0856,12.657 3.4287,14 5.0856,14 H 11.461 C 12.91,14 14.086,12.825 14.086,11.375 14.086,10.028 13.073,8.924 11.765,8.774 11.424,7.054 9.906,5.7502 8.086,5.7502 Z"/>
</svg>

<svg width="16" height="16" version="1.1" xmlns="http://www.w3.org/2000/svg">
 <defs>
  <style id="current-color-scheme" type="text/css">
   .ColorScheme-Text { color:#dedede; } .ColorScheme-Highlight { color:#5294e2; }
  </style>
 </defs>
<g style="fill:currentColor" class="ColorScheme-Text">
<path d="M7.75 1.032c-2.763.102-5.309 1.805-6.312 4.563a7.026 7.026 0 0 0-.159 4.316c.404-1.318 1.485-2.334 2.838-2.683.17-.29.372-.56.59-.813.01-.71.13-1.429.387-2.133.514-1.412 1.474-2.508 2.656-3.25zm-2.543 7.98l-.406.061A1.97 1.97 0 0 0 3.1 11.036c0 1.116.883 2 2 2h6.375c.186 0 .36-.038.525-.094a6.389 6.389 0 0 1-3.031-.316 6.461 6.461 0 0 1-3.762-3.613z"/>
<path d="M8.099 5.786c-1.553 0-2.876.951-3.445 2.297a2.986 2.986 0 0 0-2.555 2.953 3 3 0 0 0 3 3h6.375a2.625 2.625 0 0 0 2.625-2.625 2.618 2.618 0 0 0-2.32-2.601 3.759 3.759 0 0 0-3.68-3.024z"/>
</g>
</svg>
